X: 267
T:Keser
O:Serbia
N: Ansambl Arhaika
F: http://www.youtube.com/watch?v=cVwNiXeyshs
M:2/4
L:1/16
K:Em
Q:1/4=160
%%MIDI program 73 Flute
|:D2B2  BAB2|d2A2 AG A2|D2F2  FEF2|Az3 Ez3::
  D2F2  FEF2|A2E2 EDE2 |D2F2  FEF2|Az3 Ez3:| 
K:Am
|:G2e2  ede2|G2d2 dcd2|G2B2 BAB2|dz3 Az3::
  G2B2  BAB2|d2A2 AGA2|G2B2 BAB2|dz3 Az3::
  g2e'2  e'd'e'2|g2d'2 d'c'd'2|g2b2 bab2|d'z3 az3::
  g2b2  bab2|d'2a2 aga2|g2b2 bab2|d'z3 az3:|



